;FLAVOR:Marlin
;TIME:13949
;Filament used: 24.6963m
;Layer height: 0.2
;MINX:110.456
;MINY:28.7
;MINZ:0.2
;MAXX:189.544
;MAXY:171.3
;MAXZ:31.8
;Generated with Cura_SteamEngine 4.10.0
M140 S70
M105
M190 S70
M104 S215
M105
M109 S215
M82 ;absolute extrusion mode
; -- START GCODE -- 
M4002 P1 ;set heat program 1 
M1203 A88 D66 F1200 ;set higher accel and decel 
G28 X0 Y0 ;home XY 
G28 Z0 ;home Z
G91 ;set relative movements 
G0 F100 ;speed 100mm/sec 
G0 E20 ;extrude 20mm of filament
G90 ;absolute movements 
; -- end of START GCODE --
G92 E0
G92 E0
G1 F1800 E-0.6
;LAYER_COUNT:159
;LAYER:0
M107
G0 F3600 X110.813 Y34.166 Z0.2
;TYPE:SKIRT
G1 F1800 E0
G1 F2400 X111.087 Y33.426 E0.02625
G1 X111.435 Y32.717 E0.05251
G1 X111.853 Y32.046 E0.07881
G1 X112.336 Y31.422 E0.10505
G1 X112.879 Y30.849 E0.13131
G1 X113.478 Y30.334 E0.15758
G1 X114.126 Y29.883 E0.18384
G1 X114.817 Y29.499 E0.21014
G1 X115.542 Y29.187 E0.23639
G1 X116.295 Y28.95 E0.26264
G1 X117.069 Y28.791 E0.28892
G1 X117.854 Y28.71 E0.31517
G1 X118.256 Y28.7 E0.32855
G1 X181.744 Y28.7 E2.44017
G1 X182.533 Y28.74 E2.46644
G1 X183.313 Y28.859 E2.49269
G1 X184.078 Y29.057 E2.51897
G1 X184.818 Y29.331 E2.54521
G1 X185.527 Y29.679 E2.57148
G1 X186.198 Y30.097 E2.59778
G1 X186.822 Y30.58 E2.62402
G1 X187.395 Y31.123 E2.65028
G1 X187.91 Y31.722 E2.67655
G1 X188.361 Y32.37 E2.70281
G1 X188.745 Y33.061 E2.7291
G1 X189.057 Y33.786 E2.75535
G1 X189.294 Y34.539 E2.78161
G1 X189.453 Y35.313 E2.80789
G1 X189.534 Y36.098 E2.83414
G1 X189.544 Y36.5 E2.84751
G1 X189.544 Y163.5 E7.07155
G1 X189.504 Y164.289 E7.09783
G1 X189.385 Y165.069 E7.12407
G1 X189.187 Y165.834 E7.15035
G1 X188.913 Y166.574 E7.1766
G1 X188.565 Y167.283 E7.20287
G1 X188.147 Y167.954 E7.22916
G1 X187.664 Y168.578 E7.25541
G1 X187.121 Y169.151 E7.28166
G1 X186.522 Y169.666 E7.30794
G1 X185.874 Y170.117 E7.33419
G1 X185.183 Y170.501 E7.36049
G1 X184.458 Y170.813 E7.38674
G1 X183.705 Y171.05 E7.413
G1 X182.931 Y171.209 E7.43928
G1 X182.146 Y171.29 E7.46552
G1 X181.744 Y171.3 E7.4789
G1 X118.256 Y171.3 E9.59052
G1 X117.467 Y171.26 E9.61679
G1 X116.687 Y171.141 E9.64304
G1 X115.922 Y170.943 E9.66932
G1 X115.182 Y170.669 E9.69557
G1 X114.473 Y170.321 E9.72183
G1 X113.802 Y169.903 E9.74813
G1 X113.178 Y169.42 E9.77437
G1 X112.605 Y168.877 E9.80063
G1 X112.09 Y168.278 E9.8269
G1 X111.639 Y167.63 E9.85316
G1 X111.255 Y166.939 E9.87946
G1 X110.943 Y166.214 E9.90571
G1 X110.706 Y165.461 E9.93196
G1 X110.547 Y164.687 E9.95824
G1 X110.466 Y163.902 E9.98449
G1 X110.456 Y163.5 E9.99787
G1 X110.456 Y36.5 E14.2219
G1 X110.496 Y35.711 E14.24818
G1 X110.615 Y34.931 E14.27442
G1 X110.813 Y34.166 E14.30071
G0 F3600 X111.213 Y34.229
G1 F2400 X111.487 Y33.51 E14.3263
G1 X111.834 Y32.824 E14.35187
G1 X112.25 Y32.177 E14.37745
G1 X112.731 Y31.577 E14.40303
G1 X113.272 Y31.03 E14.42862
G1 X113.867 Y30.542 E14.45421
G1 X114.509 Y30.119 E14.47978
G1 X115.192 Y29.764 E14.50538
G1 X115.907 Y29.483 E14.53093
G1 X116.649 Y29.277 E14.55655
G1 X117.407 Y29.149 E14.58212
G1 X118.256 Y29.1 E14.6104
G1 X181.744 Y29.1 E16.72202
G1 X182.512 Y29.14 E16.7476
G1 X183.272 Y29.259 E16.77318
G1 X184.015 Y29.457 E16.79876
G1 X184.734 Y29.731 E16.82435
G1 X185.42 Y30.078 E16.84992
G1 X186.067 Y30.494 E16.8755
G1 X186.667 Y30.975 E16.90108
G1 X187.214 Y31.516 E16.92667
G1 X187.702 Y32.111 E16.95226
G1 X188.125 Y32.753 E16.97783
G1 X188.48 Y33.436 E17.00344
G1 X188.761 Y34.151 E17.02899
G1 X188.967 Y34.893 E17.0546
G1 X189.095 Y35.651 E17.08017
G1 X189.144 Y36.5 E17.10845
G1 X189.144 Y163.5 E21.33249
G1 X189.104 Y164.268 E21.35807
G1 X188.985 Y165.028 E21.38365
G1 X188.787 Y165.771 E21.40923
G1 X188.513 Y166.49 E21.43482
G1 X188.166 Y167.176 E21.46039
G1 X187.75 Y167.823 E21.48597
G1 X187.269 Y168.423 E21.51155
G1 X186.728 Y168.97 E21.53714
G1 X186.133 Y169.458 E21.56273
G1 X185.491 Y169.881 E21.58831
G1 X184.808 Y170.236 E21.61391
G1 X184.093 Y170.517 E21.63946
G1 X183.351 Y170.723 E21.66507
G1 X182.593 Y170.851 E21.69064
G1 X181.744 Y170.9 E21.71892
G1 X118.256 Y170.9 E23.83054
G1 X117.488 Y170.86 E23.85612
G1 X116.728 Y170.741 E23.88171
G1 X115.985 Y170.543 E23.90728
G1 X115.266 Y170.269 E23.93287
G1 X114.58 Y169.922 E23.95844
G1 X113.933 Y169.506 E23.98403
G1 X113.333 Y169.025 E24.0096
G1 X112.786 Y168.484 E24.03519
G1 X112.298 Y167.889 E24.06079
G1 X111.875 Y167.247 E24.08636
G1 X111.52 Y166.564 E24.11196
G1 X111.239 Y165.849 E24.13751
G1 X111.033 Y165.107 E24.16312
G1 X110.905 Y164.349 E24.18869
G1 X110.856 Y163.5 E24.21698
G1 X110.856 Y36.5 E28.44101
G1 X110.896 Y35.732 E28.46659
G1 X111.015 Y34.972 E28.49218
G1 X111.213 Y34.229 E28.51775
G0 F3600 X111.613 Y34.293
G1 F2400 X111.886 Y33.597 E28.54262
G1 X112.233 Y32.934 E28.56751
G1 X112.648 Y32.311 E28.59241
G1 X113.127 Y31.737 E28.61727
G1 X113.664 Y31.216 E28.64216
G1 X114.254 Y30.757 E28.66702
G1 X114.89 Y30.362 E28.69192
G1 X115.564 Y30.038 E28.71679
G1 X116.269 Y29.788 E28.74167
G1 X116.997 Y29.614 E28.76657
G1 X117.739 Y29.519 E28.79145
G1 X118.256 Y29.5 E28.80866
G1 X181.744 Y29.5 E30.92028
G1 X182.491 Y29.54 E30.94516
G1 X183.229 Y29.659 E30.97002
G1 X183.951 Y29.857 E30.99492
G1 X184.647 Y30.13 E31.01979
G1 X185.31 Y30.477 E31.04467
G1 X185.933 Y30.892 E31.06957
G1 X186.507 Y31.371 E31.09444
G1 X187.028 Y31.908 E31.11932
G1 X187.487 Y32.498 E31.14419
G1 X187.882 Y33.134 E31.16909
G1 X188.206 Y33.808 E31.19396
G1 X188.456 Y34.513 E31.21884
G1 X188.63 Y35.241 E31.24373
G1 X188.725 Y35.983 E31.26861
G1 X188.744 Y36.5 E31.28582
G1 X188.744 Y163.5 E35.50986
G1 X188.704 Y164.247 E35.53474
G1 X188.585 Y164.985 E35.5596
G1 X188.387 Y165.707 E35.5845
G1 X188.114 Y166.403 E35.60937
G1 X187.767 Y167.066 E35.63426
G1 X187.352 Y167.689 E35.65916
G1 X186.873 Y168.263 E35.68402
G1 X186.336 Y168.784 E35.70891
G1 X185.746 Y169.243 E35.73377
G1 X185.11 Y169.638 E35.75867
G1 X184.436 Y169.962 E35.78354
G1 X183.731 Y170.212 E35.80842
G1 X183.003 Y170.386 E35.83332
G1 X182.261 Y170.481 E35.8582
G1 X181.744 Y170.5 E35.87541
G1 X118.256 Y170.5 E37.98703
G1 X117.509 Y170.46 E38.01191
G1 X116.771 Y170.341 E38.03677
G1 X116.049 Y170.143 E38.06167
G1 X115.353 Y169.87 E38.08654
G1 X114.69 Y169.523 E38.11142
G1 X114.067 Y169.108 E38.13632
G1 X113.493 Y168.629 E38.16119
G1 X112.972 Y168.092 E38.18607
G1 X112.513 Y167.502 E38.21094
G1 X112.118 Y166.866 E38.23584
G1 X111.794 Y166.192 E38.26071
G1 X111.544 Y165.487 E38.28559
G1 X111.37 Y164.759 E38.31048
G1 X111.275 Y164.017 E38.33536
G1 X111.256 Y163.5 E38.35257
G1 X111.256 Y36.5 E42.57661
G1 X111.296 Y35.753 E42.60149
G1 X111.415 Y35.015 E42.62635
G1 X111.613 Y34.293 E42.65125
G0 F3600 X112.013 Y34.359
G1 F2400 X112.286 Y33.686 E42.67541
G1 X112.631 Y33.047 E42.69956
G1 X113.045 Y32.45 E42.72373
G1 X113.521 Y31.902 E42.74787
G1 X114.055 Y31.409 E42.77204
G1 X114.64 Y30.979 E42.79619
G1 X115.269 Y30.615 E42.82036
G1 X115.934 Y30.322 E42.84453
G1 X116.627 Y30.104 E42.86869
G1 X117.339 Y29.964 E42.89283
G1 X118.256 Y29.9 E42.9234
G1 X181.744 Y29.9 E45.03502
G1 X182.469 Y29.94 E45.05917
G1 X183.186 Y30.059 E45.08334
G1 X183.885 Y30.257 E45.10751
G1 X184.558 Y30.53 E45.13166
G1 X185.197 Y30.875 E45.15582
G1 X185.794 Y31.289 E45.17998
G1 X186.342 Y31.765 E45.20412
G1 X186.835 Y32.299 E45.22829
G1 X187.265 Y32.884 E45.25244
G1 X187.629 Y33.513 E45.27661
G1 X187.922 Y34.178 E45.30078
G1 X188.14 Y34.871 E45.32495
G1 X188.28 Y35.583 E45.34908
G1 X188.344 Y36.5 E45.37966
G1 X188.344 Y163.5 E49.60369
G1 X188.304 Y164.225 E49.62784
G1 X188.185 Y164.942 E49.65202
G1 X187.987 Y165.641 E49.67618
G1 X187.714 Y166.314 E49.70034
G1 X187.369 Y166.953 E49.72449
G1 X186.955 Y167.55 E49.74865
G1 X186.479 Y168.098 E49.77279
G1 X185.945 Y168.591 E49.79697
G1 X185.36 Y169.021 E49.82112
G1 X184.731 Y169.385 E49.84529
G1 X184.066 Y169.678 E49.86946
G1 X183.373 Y169.896 E49.89362
G1 X182.661 Y170.036 E49.91775
G1 X181.744 Y170.1 E49.94833
G1 X118.256 Y170.1 E52.05995
G1 X117.531 Y170.06 E52.0841
G1 X116.814 Y169.941 E52.10827
G1 X116.115 Y169.743 E52.13243
G1 X115.442 Y169.47 E52.15659
G1 X114.803 Y169.125 E52.18074
G1 X114.206 Y168.711 E52.20491
G1 X113.658 Y168.235 E52.22905
G1 X113.165 Y167.701 E52.25322
G1 X112.735 Y167.116 E52.27737
G1 X112.371 Y166.487 E52.30154
G1 X112.078 Y165.822 E52.32571
G1 X111.86 Y165.129 E52.34987
G1 X111.72 Y164.417 E52.37401
G1 X111.656 Y163.5 E52.40458
G1 X111.656 Y36.5 E56.62862
G1 X111.696 Y35.775 E56.65277
G1 X111.815 Y35.058 E56.67694
G1 X112.013 Y34.359 E56.70111
G0 F3600 X112.413 Y34.428
G1 F2400 X112.685 Y33.779 E56.72451
G1 X113.03 Y33.165 E56.74794
G1 X113.441 Y32.594 E56.77134
G1 X113.915 Y32.073 E56.79476
G1 X114.445 Y31.609 E56.81819
G1 X115.024 Y31.209 E56.8416
G1 X115.645 Y30.877 E56.86502
G1 X116.299 Y30.617 E56.88843
G1 X116.979 Y30.433 E56.91186
G1 X117.675 Y30.327 E56.93527
G1 X118.256 Y30.3 E56.95462
G1 X181.744 Y30.3 E59.06624
G1 X182.447 Y30.34 E59.08966
G1 X183.141 Y30.459 E59.11308
G1 X183.816 Y30.657 E59.13647
G1 X184.465 Y30.929 E59.15988
G1 X185.079 Y31.274 E59.1833
G1 X185.65 Y31.685 E59.2067
G1 X186.171 Y32.159 E59.23013
G1 X186.635 Y32.689 E59.25356
G1 X187.035 Y33.268 E59.27696
G1 X187.367 Y33.889 E59.30039
G1 X187.627 Y34.543 E59.32379
G1 X187.811 Y35.223 E59.34722
G1 X187.917 Y35.919 E59.37064
G1 X187.944 Y36.5 E59.38998
G1 X187.944 Y163.5 E63.61402
G1 X187.904 Y164.203 E63.63744
G1 X187.785 Y164.897 E63.66086
G1 X187.587 Y165.572 E63.68426
G1 X187.315 Y166.221 E63.70766
G1 X186.97 Y166.835 E63.73109
G1 X186.559 Y167.406 E63.75449
G1 X186.085 Y167.927 E63.77791
G1 X185.555 Y168.391 E63.80134
G1 X184.976 Y168.791 E63.82475
G1 X184.355 Y169.123 E63.84817
G1 X183.701 Y169.383 E63.87158
G1 X183.021 Y169.567 E63.89501
G1 X182.325 Y169.673 E63.91842
G1 X181.744 Y169.7 E63.93777
G1 X118.256 Y169.7 E66.04939
G1 X117.553 Y169.66 E66.07281
G1 X116.859 Y169.541 E66.09623
G1 X116.184 Y169.343 E66.11962
G1 X115.535 Y169.071 E66.14303
G1 X114.921 Y168.726 E66.16645
G1 X114.35 Y168.315 E66.18985
G1 X113.829 Y167.841 E66.21328
G1 X113.365 Y167.311 E66.23671
G1 X112.965 Y166.732 E66.26012
G1 X112.633 Y166.111 E66.28354
G1 X112.373 Y165.457 E66.30694
G1 X112.189 Y164.777 E66.33037
G1 X112.083 Y164.081 E66.35379
G1 X112.056 Y163.5 E66.37314
G1 X112.056 Y36.5 E70.59717
G1 X112.096 Y35.797 E70.62059
G1 X112.215 Y35.103 E70.64401
G1 X112.413 Y34.428 E70.66741
G0 F3600 X112.812 Y34.498
G1 F2400 X113.084 Y33.874 E70.69005
G1 X113.428 Y33.286 E70.71271
G1 X113.838 Y32.742 E70.73536
G1 X114.309 Y32.251 E70.75799
G1 X114.834 Y31.817 E70.78065
G1 X115.406 Y31.448 E70.80329
G1 X116.018 Y31.149 E70.82594
G1 X116.66 Y30.924 E70.84857
G1 X117.325 Y30.775 E70.87124
G1 X118.256 Y30.7 E70.9023
G1 X181.744 Y30.7 E73.01392
G1 X182.424 Y30.74 E73.03658
G1 X183.094 Y30.859 E73.05921
G1 X183.746 Y31.056 E73.08186
G1 X184.37 Y31.328 E73.1045
G1 X184.958 Y31.672 E73.12716
G1 X185.502 Y32.082 E73.14982
G1 X185.993 Y32.553 E73.17245
G1 X186.427 Y33.078 E73.1951
G1 X186.796 Y33.65 E73.21774
G1 X187.095 Y34.262 E73.2404
G1 X187.32 Y34.904 E73.26303
G1 X187.469 Y35.569 E73.28569
G1 X187.544 Y36.5 E73.31676
G1 X187.544 Y163.5 E77.54079
G1 X187.504 Y164.18 E77.56345
G1 X187.385 Y164.85 E77.58608
G1 X187.188 Y165.502 E77.60874
G1 X186.916 Y166.126 E77.63138
G1 X186.572 Y166.714 E77.65404
G1 X186.162 Y167.258 E77.67669
G1 X185.691 Y167.749 E77.69932
G1 X185.166 Y168.183 E77.72198
G1 X184.594 Y168.552 E77.74462
G1 X183.982 Y168.851 E77.76727
G1 X183.34 Y169.076 E77.7899
G1 X182.675 Y169.225 E77.81257
G1 X181.744 Y169.3 E77.84363
G1 X118.256 Y169.3 E79.95525
G1 X117.576 Y169.26 E79.97791
G1 X116.906 Y169.141 E80.00054
G1 X116.254 Y168.944 E80.02319
G1 X115.63 Y168.672 E80.04583
G1 X115.042 Y168.328 E80.06849
G1 X114.498 Y167.918 E80.09115
G1 X114.007 Y167.447 E80.11378
G1 X113.573 Y166.922 E80.13643
G1 X113.204 Y166.35 E80.15907
G1 X112.905 Y165.738 E80.18173
G1 X112.68 Y165.096 E80.20435
G1 X112.531 Y164.431 E80.22702
G1 X112.456 Y163.5 E80.25809
G1 X112.456 Y36.5 E84.48212
G1 X112.496 Y35.82 E84.50478
G1 X112.615 Y35.15 E84.52741
G1 X112.812 Y34.498 E84.55007
G0 F3600 X113.015 Y35.198
G1 F2400 X113.212 Y34.571 E84.57193
G1 X113.484 Y33.973 E84.59378
G1 X113.826 Y33.412 E84.61563
G1 X114.234 Y32.897 E84.63748
G1 X114.701 Y32.435 E84.65933
G1 X115.221 Y32.034 E84.68117
G1 X115.785 Y31.698 E84.70301
G1 X116.387 Y31.434 E84.72487
G1 X117.016 Y31.244 E84.74672
G1 X117.663 Y31.133 E84.76856
G1 X118.256 Y31.1 E84.78831
G1 X181.744 Y31.1 E86.89993
G1 X182.4 Y31.14 E86.92179
G1 X183.046 Y31.259 E86.94364
G1 X183.673 Y31.456 E86.9655
G1 X184.271 Y31.728 E86.98735
G1 X184.832 Y32.07 E87.0092
G1 X185.347 Y32.478 E87.03105
G1 X185.809 Y32.945 E87.0529
G1 X186.21 Y33.465 E87.07474
G1 X186.546 Y34.029 E87.09658
G1 X186.81 Y34.631 E87.11844
G1 X187 Y35.26 E87.1403
G1 X187.111 Y35.907 E87.16213
G1 X187.144 Y36.5 E87.18188
G1 X187.144 Y163.5 E91.40592
G1 X187.104 Y164.156 E91.42778
G1 X186.985 Y164.802 E91.44963
G1 X186.788 Y165.429 E91.47149
G1 X186.516 Y166.027 E91.49334
G1 X186.174 Y166.588 E91.51519
G1 X185.766 Y167.103 E91.53704
G1 X185.299 Y167.565 E91.55889
G1 X184.779 Y167.966 E91.58073
G1 X184.215 Y168.302 E91.60257
G1 X183.613 Y168.566 E91.62443
G1 X182.984 Y168.756 E91.64628
G1 X182.337 Y168.867 E91.66812
G1 X181.744 Y168.9 E91.68787
G1 X118.256 Y168.9 E93.79949
G1 X117.6 Y168.86 E93.82135
G1 X116.954 Y168.741 E93.8432
G1 X116.327 Y168.544 E93.86506
G1 X115.729 Y168.272 E93.88691
G1 X115.168 Y167.93 E93.90876
G1 X114.653 Y167.522 E93.93061
G1 X114.191 Y167.055 E93.95246
G1 X113.79 Y166.535 E93.9743
G1 X113.454 Y165.971 E93.99614
G1 X113.19 Y165.369 E94.018
G1 X113 Y164.74 E94.03986
G1 X112.889 Y164.093 E94.06169
G1 X112.856 Y163.5 E94.08144
G1 X112.856 Y36.5 E98.30548
G1 X112.896 Y35.844 E98.32734
G1 X113.015 Y35.198 E98.34919
G0 F3600 X113.415 Y35.248
G1 F2400 X113.612 Y34.648 E98.37019
G1 X113.883 Y34.076 E98.39124
G1 X114.223 Y33.544 E98.41224
G1 X114.629 Y33.059 E98.43328
G1 X115.092 Y32.629 E98.4543
G1 X115.606 Y32.26 E98.47534
G1 X116.162 Y31.96 E98.49635
G1 X116.751 Y31.732 E98.51736
G1 X117.365 Y31.58 E98.5384
G1 X118.256 Y31.5 E98.56815
G1 X181.744 Y31.5 E100.67977
G1 X182.375 Y31.54 E100.7008
G1 X182.996 Y31.659 E100.72183
G1 X183.596 Y31.856 E100.74284
G1 X184.168 Y32.127 E100.76389
G1 X184.7 Y32.467 E100.78489
G1 X185.185 Y32.873 E100.80592
G1 X185.615 Y33.336 E100.82694
G1 X185.984 Y33.85 E100.84799
G1 X186.284 Y34.406 E100.869
G1 X186.512 Y34.995 E100.89001
G1 X186.664 Y35.609 E100.91104
G1 X186.744 Y36.5 E100.9408
G1 X186.744 Y163.5 E105.16484
G1 X186.704 Y164.131 E105.18586
G1 X186.585 Y164.752 E105.20689
G1 X186.388 Y165.352 E105.2279
G1 X186.117 Y165.924 E105.24895
G1 X185.777 Y166.456 E105.26995
G1 X185.371 Y166.941 E105.29099
G1 X184.908 Y167.371 E105.312
G1 X184.394 Y167.74 E105.33305
G1 X183.838 Y168.04 E105.35406
G1 X183.249 Y168.268 E105.37507
G1 X182.635 Y168.42 E105.39611
G1 X181.744 Y168.5 E105.42586
G1 X118.256 Y168.5 E107.53748
G1 X117.625 Y168.46 E107.55851
G1 X117.004 Y168.341 E107.57954
G1 X116.404 Y168.144 E107.60054
G1 X115.832 Y167.873 E107.6216
G1 X115.3 Y167.533 E107.6426
G1 X114.815 Y167.127 E107.66363
G1 X114.385 Y166.664 E107.68465
G1 X114.016 Y166.15 E107.70569
G1 X113.716 Y165.594 E107.72671
G1 X113.488 Y165.005 E107.74771
G1 X113.336 Y164.391 E107.76875
G1 X113.256 Y163.5 E107.79851
G1 X113.256 Y36.5 E112.02254
G1 X113.296 Y35.869 E112.04357
G1 X113.415 Y35.248 E112.0646
G0 F3600 X113.815 Y35.301
G1 F2400 X114.011 Y34.727 E112.08478
G1 X114.282 Y34.184 E112.10496
G1 X114.621 Y33.681 E112.12513
G1 X115.023 Y33.228 E112.14528
G1 X115.481 Y32.831 E112.16544
G1 X115.988 Y32.498 E112.18561
G1 X116.534 Y32.234 E112.20578
G1 X117.11 Y32.045 E112.22595
G1 X117.706 Y31.933 E112.24612
G1 X118.256 Y31.9 E112.26444
G1 X181.744 Y31.9 E114.37606
G1 X182.349 Y31.94 E114.39623
G1 X182.943 Y32.059 E114.41638
G1 X183.517 Y32.255 E114.43655
G1 X184.06 Y32.526 E114.45674
G1 X184.563 Y32.865 E114.47691
G1 X185.016 Y33.267 E114.49706
G1 X185.413 Y33.725 E114.51721
G1 X185.746 Y34.232 E114.53739
G1 X186.01 Y34.778 E114.55756
G1 X186.199 Y35.354 E114.57772
G1 X186.311 Y35.95 E114.59789
G1 X186.344 Y36.5 E114.61622
G1 X186.344 Y163.5 E118.84026
